icons/cloudy-lightning.svg

<svg width="24" height="24" viewBox="0 0 24 24" fill="none" xmlns="http://www.w3.org/2000/svg">
<path d="M11.91 23L14 19H10L12.09 15" stroke="white" stroke-width="2" stroke-linecap="round" stroke-linejoin="round"/>
<path d="M8.24799 8.49981C8.24698 7.21728 8.62024 5.96232 9.32199 4.88881C10.0173 3.82446 11.0135 2.99109 12.184 2.49481C13.3466 2.00302 14.6308 1.87405 15.868 2.12481C17.1093 2.37836 18.2462 2.998 19.132 3.90381C20.0267 4.81855 20.6334 5.97566 20.877 7.23181C21.1232 8.49209 20.9975 9.79679 20.515 10.9868C20.0366 12.1697 19.2194 13.1848 18.166 13.9048C17.1221 14.6174 15.8879 14.999 14.624 14.9998H7.12199C6.52299 14.9998 5.93199 14.8658 5.38799 14.6088C4.84287 14.3502 4.36094 13.9754 3.97599 13.5108C3.58815 13.0425 3.30575 12.4961 3.14799 11.9088C2.98963 11.3203 2.95865 10.7047 3.05711 10.1032C3.15558 9.50171 3.38123 8.92815 3.71899 8.42081C4.05511 7.91837 4.49669 7.49522 5.01299 7.18081C5.52508 6.86819 6.10021 6.67319 6.69684 6.6099C7.29347 6.5466 7.89671 6.61659 8.46299 6.81481" stroke="white" stroke-width="2" stroke-linecap="round" stroke-linejoin="round"/>
</svg>

<svg
  width="24"
  height="24"
  viewBox="0 0 24 24"
  xmlns="http://www.w3.org/2000/svg"
  fill="none"
  stroke="currentColor"
  stroke-width="2"
  stroke-linecap="round"
  stroke-linejoin="round"
>
  <path d="M11.91 23L14 19h-4l2.09-4" />
  <path d="M8.248 8.5a6.59 6.59 0 0 1 1.074-3.611 6.405 6.405 0 0 1 2.862-2.394 6.263 6.263 0 0 1 3.684-.37 6.34 6.34 0 0 1 3.264 1.779 6.54 6.54 0 0 1 1.745 3.328 6.617 6.617 0 0 1-.362 3.755 6.475 6.475 0 0 1-2.349 2.918A6.29 6.29 0 0 1 14.624 15H7.122c-.599 0-1.19-.134-1.734-.391a4.136 4.136 0 0 1-1.412-1.098 4.234 4.234 0 0 1-.828-1.602 4.285 4.285 0 0 1 .571-3.488 4.16 4.16 0 0 1 1.294-1.24 4.052 4.052 0 0 1 3.45-.366" />
</svg>
